icons/breezeDark/toolpath/pock_offs_climb.svg

<svg height="75" viewBox="0 0 19.84375 19.843751" width="75" xmlns="http://www.w3.org/2000/svg"><g transform="translate(0 -277.15623)"><g fill="#c0c0c0"><path d="m15 15v45h45v-45zm1 1h43v43h-43z" stroke-width=".989072" transform="matrix(.26458334 0 0 .26458334 0 277.15623)"/><path d="m23.5 16a7.4999998 7.4999998 0 0 0 -7.5 7.5 7.4999998 7.4999998 0 0 0 7.5 7.5 7.4999998 7.4999998 0 0 0 7.5-7.5 7.4999998 7.4999998 0 0 0 -7.5-7.5zm0 1a6.5 6.5 0 0 1 6.5 6.5 6.5 6.5 0 0 1 -6.5 6.5 6.5 6.5 0 0 1 -6.5-6.5 6.5 6.5 0 0 1 6.5-6.5z" stroke-width=".999999" transform="matrix(.26458334 0 0 .26458334 0 277.15623)"/><circle cx="-9.921876" cy="287.07809" fill-opacity=".5" r="1.719792" stroke-width=".264583" transform="scale(-1 1)"/></g><circle cx="-6.217709" cy="283.37393" fill="#3daee9" r="1.719792" stroke-width=".264583" transform="scale(-1 1)"/><path d="m9.9218761 285.09373a1.984375 1.984375 0 0 0 -1.9843757 1.98438 1.984375 1.984375 0 0 0 1.9843757 1.98437 1.984375 1.984375 0 0 0 1.9843759-1.98437 1.984375 1.984375 0 0 0 -1.9843759-1.98438zm0 .26458a1.7197917 1.7197917 0 0 1 1.7197929 1.7198 1.7197917 1.7197917 0 0 1 -1.7197929 1.71979 1.7197917 1.7197917 0 0 1 -1.7197924-1.71979 1.7197917 1.7197917 0 0 1 1.7197924-1.7198z" fill="#c0c0c0" stroke-width=".264583"/><path d="m33 19-8.488281 3.394531a1.5000001 1.5000001 0 0 0 -1.011719-.394531 1.5000001 1.5000001 0 0 0 -1.5 1.5 1.5000001 1.5000001 0 0 0 1.5 1.5 1.5000001 1.5000001 0 0 0 1.011719-.394531l8.488281 3.394531v-1l-7.501953-3h26.501953v28h-29v-21h21v13h-13v-6h5.087891a1.5000001 1.5000001 0 0 0 1.412109 1 1.5000001 1.5000001 0 0 0 1.5-1.5 1.5000001 1.5000001 0 0 0 -1.5-1.5 1.5000001 1.5000001 0 0 0 -1.412109 1h-6.087891v7 1h1 13 1v-1-13-1h-23v22 1h30 1v-1-28-1h-1-26.5l7.5-3z" fill="#da4453" transform="matrix(.26458334 0 0 .26458334 0 277.15623)"/></g></svg>

<?xml version="1.0" encoding="UTF-8" standalone="no"?>
<svg
   xmlns:dc="http://purl.org/dc/elements/1.1/"
   xmlns:cc="http://creativecommons.org/ns#"
   xmlns:rdf="http://www.w3.org/1999/02/22-rdf-syntax-ns#"
   xmlns:svg="http://www.w3.org/2000/svg"
   xmlns="http://www.w3.org/2000/svg"
   xmlns:sodipodi="http://sodipodi.sourceforge.net/DTD/sodipodi-0.dtd"
   xmlns:inkscape="http://www.inkscape.org/namespaces/inkscape"
   sodipodi:docname="pock_offs_climb.svg"
   inkscape:version="1.0beta1 (fe3e306, 2019-09-17)"
   id="svg8"
   version="1.1"
   viewBox="0 0 19.84375 19.843751"
   height="75"
   width="75">
  <defs
     id="defs2" />
  <sodipodi:namedview
     inkscape:document-rotation="0"
     inkscape:snap-bbox="true"
     inkscape:snap-object-midpoints="false"
     inkscape:snap-center="false"
     inkscape:window-maximized="0"
     inkscape:window-y="0"
     inkscape:window-x="863"
     inkscape:window-height="1042"
     inkscape:window-width="1041"
     showguides="false"
     units="px"
     showgrid="true"
     inkscape:current-layer="layer1"
     inkscape:document-units="px"
     inkscape:cy="37.788289"
     inkscape:cx="33.783691"
     inkscape:zoom="11.313708"
     inkscape:pageshadow="2"
     inkscape:pageopacity="0.0"
     borderopacity="1.0"
     bordercolor="#666666"
     pagecolor="#ffffff"
     id="base">
    <inkscape:grid
       id="grid10"
       type="xygrid" />
  </sodipodi:namedview>
  <metadata
     id="metadata5">
    <rdf:RDF>
      <cc:Work
         rdf:about="">
        <dc:format>image/svg+xml</dc:format>
        <dc:type
           rdf:resource="http://purl.org/dc/dcmitype/StillImage" />
        <dc:title />
      </cc:Work>
    </rdf:RDF>
  </metadata>
  <g
     transform="translate(0,-277.15623)"
     id="layer1"
     inkscape:groupmode="layer"
     inkscape:label="Layer 1">
    <path
       transform="matrix(0.26458334,0,0,0.26458334,0,277.15623)"
       d="M 15 15 L 15 60 L 60 60 L 60 15 L 15 15 z M 16 16 L 59 16 L 59 59 L 16 59 L 16 16 z "
       style="stroke-width:0.989072;fill:#c0c0c0;fill-opacity:1"
       id="rect14" />
    <path
       transform="matrix(0.26458334,0,0,0.26458334,0,277.15623)"
       d="M 23.5 16 A 7.4999998 7.4999998 0 0 0 16 23.5 A 7.4999998 7.4999998 0 0 0 23.5 31 A 7.4999998 7.4999998 0 0 0 31 23.5 A 7.4999998 7.4999998 0 0 0 23.5 16 z M 23.5 17 A 6.5 6.5 0 0 1 30 23.5 A 6.5 6.5 0 0 1 23.5 30 A 6.5 6.5 0 0 1 17 23.5 A 6.5 6.5 0 0 1 23.5 17 z "
       style="fill:#c0c0c0;stroke-width:0.999999;fill-opacity:1"
       id="path22" />
    <circle
       transform="scale(-1,1)"
       r="1.7197917"
       cy="287.07809"
       cx="-9.921876"
       id="path20"
       style="fill:#c0c0c0;stroke-width:0.26458335;fill-opacity:0.5" />
    <circle
       style="fill:#3daee9;fill-opacity:1;stroke-width:0.264583"
       id="path20-7"
       cx="-6.2177086"
       cy="283.37393"
       r="1.7197917"
       transform="scale(-1,1)" />
    <path
       inkscape:connector-curvature="0"
       id="path22-1"
       style="fill:#c0c0c0;fill-opacity:1;stroke-width:0.264583"
       d="m 9.9218761,285.09373 a 1.984375,1.984375 0 0 0 -1.9843757,1.98438 1.984375,1.984375 0 0 0 1.9843757,1.98437 1.984375,1.984375 0 0 0 1.9843759,-1.98437 1.984375,1.984375 0 0 0 -1.9843759,-1.98438 z m 0,0.26458 a 1.7197917,1.7197917 0 0 1 1.7197929,1.7198 1.7197917,1.7197917 0 0 1 -1.7197929,1.71979 1.7197917,1.7197917 0 0 1 -1.7197924,-1.71979 1.7197917,1.7197917 0 0 1 1.7197924,-1.7198 z" />
    <path
       transform="matrix(0.26458334,0,0,0.26458334,0,277.15623)"
       d="M 33 19 L 24.511719 22.394531 A 1.5000001 1.5000001 0 0 0 23.5 22 A 1.5000001 1.5000001 0 0 0 22 23.5 A 1.5000001 1.5000001 0 0 0 23.5 25 A 1.5000001 1.5000001 0 0 0 24.511719 24.605469 L 33 28 L 33 27 L 25.498047 24 L 52 24 L 52 52 L 23 52 L 23 31 L 44 31 L 44 44 L 31 44 L 31 38 L 36.087891 38 A 1.5000001 1.5000001 0 0 0 37.5 39 A 1.5000001 1.5000001 0 0 0 39 37.5 A 1.5000001 1.5000001 0 0 0 37.5 36 A 1.5000001 1.5000001 0 0 0 36.087891 37 L 30 37 L 30 44 L 30 45 L 31 45 L 44 45 L 45 45 L 45 44 L 45 31 L 45 30 L 22 30 L 22 52 L 22 53 L 52 53 L 53 53 L 53 52 L 53 24 L 53 23 L 52 23 L 25.5 23 L 33 20 L 33 19 z "
       style="fill:#da4453;fill-opacity:1;stroke:none;stroke-width:14.00949669;stroke-miterlimit:4;stroke-dasharray:none;stroke-opacity:1"
       id="rect4555" />
  </g>
</svg>
